build/system/QLSolid.svg

<svg xmlns="http://www.w3.org/2000/svg" fill="none" viewBox="0 0 24 24" focusable="false"><path d="M0 0H24V24H0z"/><path fill="#74767B" fill-rule="evenodd" d="M4 6.98828C4 5.33143 5.34315 3.98828 7 3.98828L17 3.98828C18.6569 3.98828 20 5.33143 20 6.98828L20 16.9883C20 18.6451 18.6569 19.9883 17 19.9883L7 19.9883C5.34315 19.9883 4 18.6451 4 16.9883L4 6.98828ZM9.78613 17.1943C10.324 17.1943 10.8288 17.0528 11.2653 16.8049L12.233 17.8252C12.48 18.0857 12.8914 18.0966 13.1519 17.8496C13.4124 17.6025 13.4232 17.1911 13.1762 16.9306L12.2307 15.9337C12.5804 15.4431 12.7861 14.8427 12.7861 14.1943L12.7861 9.78223C12.7861 8.12537 11.443 6.78223 9.78613 6.78223L9.68848 6.78223C8.03162 6.78223 6.68848 8.12537 6.68848 9.78223L6.68848 14.1943C6.68848 15.8512 8.03162 17.1943 9.68848 17.1943L9.78613 17.1943ZM15.3912 7.49609C15.3912 7.13711 15.1002 6.84609 14.7412 6.84609C14.3822 6.84609 14.0912 7.13711 14.0912 7.49609L14.0912 15.8049C14.0912 16.5505 14.6956 17.1549 15.4412 17.1549L17.4243 17.1549C17.7833 17.1549 18.0743 16.8639 18.0743 16.5049C18.0743 16.1459 17.7833 15.8549 17.4243 15.8549L15.4412 15.8549C15.4136 15.8549 15.3912 15.8325 15.3912 15.8049L15.3912 7.49609ZM9.68848 8.08223L9.78613 8.08223C10.725 8.08223 11.4861 8.84334 11.4861 9.78223L11.4861 14.1943C11.4861 14.469 11.421 14.7284 11.3054 14.958L10.5468 14.1582C10.2998 13.8977 9.88838 13.8868 9.62791 14.1338C9.36743 14.3809 9.35654 14.7923 9.60357 15.0528L10.3205 15.8087C10.1524 15.8643 9.9728 15.8943 9.78613 15.8943L9.68848 15.8943C8.74959 15.8943 7.98848 15.1332 7.98848 14.1943L7.98848 9.78223C7.98848 8.84334 8.74959 8.08223 9.68848 8.08223Z"/></svg>

<svg xmlns="http://www.w3.org/2000/svg" fill="none" viewBox="0 0 24 24" focusable="false"><path fill="#74767B" fill-rule="evenodd" d="M4 6.98c0-1.65 1.34-3 3-3h10c1.65 0 3 1.35 3 3v10c0 1.66-1.35 3-3 3H7c-1.66 0-3-1.34-3-3zm5.78 10.21c.54 0 1.04-.14 1.48-.39l.97 1.02c.25.26.66.27.92.02.26-.24.27-.65.02-.91l-.94-1c.35-.49.55-1.09.55-1.74V9.78c0-1.66-1.34-3-3-3h-.1c-1.65 0-3 1.34-3 3v4.41c0 1.66 1.35 3 3 3zm5.61-9.7c0-.36-.29-.65-.65-.65s-.65.29-.65.65v8.31c0 .75.6 1.35 1.35 1.35h1.98c.36 0 .65-.29.65-.65s-.29-.65-.65-.65h-1.98c-.03 0-.05-.02-.05-.05zm-5.61.59h-.1c-.94 0-1.7.76-1.7 1.7v4.41c0 .94.76 1.7 1.7 1.7h.1q.285 0 .54-.09l-.72-.75a.65.65 0 0 1 .02-.92c.26-.25.67-.24.92.02l.76.8c.12-.23.18-.49.18-.76V9.78c0-.94-.76-1.7-1.7-1.7"/></svg>
